_inc/systems/logos/dragon32.svg

<svg xmlns="http://www.w3.org/2000/svg" viewBox="0 0 3840 520"><path d="M3559.5 238.1c-5.2-91 51.4-143.3 140.5-143.3 80.5 0 135.3 33.8 135.3 104.3 0 84.8-82.9 111.4-145.2 149.5v.5h150v81h-287.2c-1.9-31.9 7.6-59.5 23.8-81.9 27.6-38.6 75.2-63.8 117.6-89.5 17.1-10.5 44.8-23.8 44.8-48.1 0-30-17.6-40.5-40-40.5-38.1 0-51 27.6-50 68.1h-89.6Zm-3107 205.6L408.4 520h-23.7l44.1-76.3zm90.2-156.4 102.7-177.8a59.3 59.3 0 0 1 51.4-29.7h218.1l11.8-20.5H697.3c-28.7 0-55.5 15.5-69.9 40.4l-38.8 67.1-1.2 2L519 287.3z" class="st1" style="fill:#fff"/><path d="M960.9 0H697.3C647.3 0 601 26.7 576 70l-38.8 67.1-1.2 2-85.5 148.1h53.2L615.9 93.1c16.7-29 47.9-47 81.4-47h237.1z" class="st1" style="fill:#fff"/><path d="M664.3 195.5h183.8l59.1-102.3H696.8c-16.5 0-31.7 8.8-39.9 23l-98.8 171.2h53.2zM521 443.7 476.9 520h-53.1l44-76.3zm-160.7 0L316.2 520h53.2l44-76.3z" class="st1" style="fill:#fff"/><path d="M135.3 195.5H261L243.9 225c-53.9 93.4 13.5 210.1 121.3 210.1h527.4l-49 84.9h53.2l35.7-61.9c8.2-14.2 8.2-31.8 0-46s-23.4-23-39.9-23H365.2c-34 0-64.4-17.6-81.4-47a93 93 0 0 1 0-94l17.1-29.6c8.2-14.2 8.2-31.8 0-46s-23.4-23-39.9-23H108.8z" class="st1" style="fill:#fff"/><path d="M81.6 102.3h177.9c34 0 64.4 17.6 81.4 47a93 93 0 0 1 0 94l-17.1 29.6a46.1 46.1 0 0 0 0 46c8.2 14.2 23.4 23 39.9 23h527.4c34 0 64.4 17.6 81.4 47 15 26 16.8 56.4 5.3 83.4L950.3 520h54l8.1-14c53.9-93.4-13.5-210.1-121.3-210.1H363.7l17.1-29.6c53.9-93.3-13.5-210-121.3-210h-1.3l-30.5 30.5-30.5-30.5H55zm124.1-54.6 21.9-22 22 22h23.2L227.6 2.5l-45.1 45.2z" class="st1" style="fill:#fff"/><path d="M70.2 149.5 0 123.9l40.7-25.6 10 17.3h208.8c29.2 0 55.3 15.1 69.9 40.4s14.6 55.4 0 80.7l-17.1 29.6a59.3 59.3 0 0 0 0 59.3 59.3 59.3 0 0 0 51.4 29.7h527.4c29.2 0 55.3 15.1 69.9 40.4s14.6 55.4 0 80.7L935.8 520h-23.7l31.9-55.2c10.6-18.4 10.6-41 0-59.4a59.3 59.3 0 0 0-51.4-29.7H365.2c-29.2 0-55.3-15.1-69.9-40.4s-14.6-55.4 0-80.7l17.1-29.6c10.6-18.4 10.6-41 0-59.3A59.3 59.3 0 0 0 261 136H62.7zM1276 90h-172v340h151.5c118.6 0 173.8-66.2 173.8-170.5 0-85.7-40-169.5-153.3-169.5m-26.2 252.9h-41V177.1h33.3c75.7 0 82.4 59.5 82.4 81 .1 31.9-9.5 84.8-74.7 84.8m470.5-70.5c34.8-12.9 51-50 51-85.2 0-64.3-51.4-97.2-111-97.2h-199.6v340h104.8V311.4h55.7c41.4 0 44.3 33.8 47.2 66.2 1.4 17.6 3.3 35.2 8.6 52.4h104.8c-9.5-15.7-10-56.2-11.4-72.9-3.9-42.3-21.5-73.8-50.1-84.7m-100-33.8h-54.8V171h49.1c40 0 51.9 12.4 51.9 33.8 0 30.4-26.7 33.8-46.2 33.8M1922.7 90l-125.3 340h105.3l15.2-48.6H2026l14.3 48.6h108.6L2025.1 90zm18.1 218.6 32.9-104.8h.9l30.5 104.8zm387.6 7.1h46.2c-5.2 25.2-30 37.6-54.3 37.6-63.8 0-76.7-55.7-76.7-87.6 0-23.3-2.4-99.1 69.5-99.1 24.8 0 45.7 17.6 49.5 42.4h100.5c-15.2-80-70-127.2-156.7-127.2-76.7 0-167.6 51.9-167.6 181.5 0 96.7 61.9 174.8 162.4 174.8 37.1 0 73.3-12.9 96.7-42.9l3.3 34.8h66.2V242.9h-139.1v72.8ZM2668 81.9c-103.3 0-172.4 74.3-172.4 178.1s69.1 178.1 172.4 178.1c103.4 0 172.4-74.3 172.4-178.1S2771.3 81.9 2668 81.9m0 271.5c-26.7 0-67.6-17.6-67.6-93.3s41-93.3 67.6-93.3c26.7 0 67.6 17.6 67.6 93.3s-40.9 93.3-67.6 93.3M3078.5 90v181.9h-1l-99-181.9h-107.2v340h99.1V244.3h1L3075.6 430h101.9V90zm198.1 119c.5-39.1 16.2-67.6 41.4-86.7 25.2-18.6 59.5-27.6 96.7-27.6 96.2 0 128.1 57.1 128.1 85.2 0 69.5-43.8 69.5-43.8 71v1c0 3.8 54.3 3.8 54.3 77.6 0 40.5-30.5 104.3-139.1 104.3-149.1 0-149.5-104.8-147.2-129.5h90.5c-.5 17.6 3.8 31 12.9 39.5 9 11 22.9 14.8 39.5 14.8 27.1 0 44.3-10 44.3-37.1 0-29.1-22.4-34.3-44.3-34.3-13.8 0-20.5 1.4-27.6 2.4v-64.8c7.1.5 14.8 1.9 27.6 1.9 20 0 45.2-4.3 45.2-30 0-21-23.8-29-43.3-29-25.7 0-46.7 13.8-45.7 41.4h-89.5Z" class="st1" style="fill:#fff"/></svg>

<?xml version="1.0" encoding="utf-8"?>
<svg version="1.1" viewBox="0 0 3840 520" xmlns="http://www.w3.org/2000/svg">
  <path class="st1" d="M 3559.5 238.1 C 3554.3 147.1 3610.9 94.8 3700 94.8 C 3780.5 94.8 3835.3 128.6 3835.3 199.1 C 3835.3 283.9 3752.4 310.5 3690.1 348.6 L 3690.1 349.1 L 3840.1 349.1 L 3840.1 430.1 L 3552.9 430.1 C 3551 398.2 3560.5 370.6 3576.7 348.2 C 3604.3 309.6 3651.9 284.4 3694.3 258.7 C 3711.4 248.2 3739.1 234.9 3739.1 210.6 C 3739.1 180.6 3721.5 170.1 3699.1 170.1 C 3661 170.1 3648.1 197.7 3649.1 238.2 L 3559.5 238.2 Z" style="fill: rgb(255, 255, 255);"/>
  <polygon class="st1" points="452.5 443.7 408.4 520 384.7 520 428.8 443.7" style="fill: rgb(255, 255, 255);"/>
  <path class="st1" d="M 542.7 287.3 L 645.4 109.5 C 656 91.1 675.6 79.8 696.8 79.8 L 914.9 79.8 L 926.7 59.3 L 777.2 59.3 L 697.3 59.3 C 668.6 59.3 641.8 74.8 627.4 99.7 L 588.6 166.8 L 587.4 168.8 L 519 287.3 L 542.7 287.3 Z" style="fill: rgb(255, 255, 255);"/>
  <path class="st1" d="M 960.9 0 L 777.2 0 L 777.2 0 L 697.3 0 C 647.3 0 601 26.7 576 70 L 537.2 137.1 L 536 139.1 L 450.5 287.2 L 503.7 287.2 L 615.9 93.1 C 632.6 64.1 663.8 46.1 697.3 46.1 L 934.4 46.1 L 960.9 0 Z" style="fill: rgb(255, 255, 255);"/>
  <path class="st1" d="M 664.3 195.5 L 848.1 195.5 L 907.2 93.2 L 696.8 93.2 C 680.3 93.2 665.1 102 656.9 116.2 L 558.1 287.4 L 611.3 287.4 L 664.3 195.5 Z" style="fill: rgb(255, 255, 255);"/>
  <polygon class="st1" points="521 443.7 476.9 520 423.8 520 467.8 443.7" style="fill: rgb(255, 255, 255);"/>
  <polygon class="st1" points="360.3 443.7 316.2 520 369.4 520 413.4 443.7" style="fill: rgb(255, 255, 255);"/>
  <path class="st1" d="M 135.3 195.5 L 261 195.5 L 243.9 225 C 190 318.4 257.4 435.1 365.2 435.1 L 365.2 435.1 L 892.6 435.1 L 843.6 520 L 896.8 520 L 932.5 458.1 C 940.7 443.9 940.7 426.3 932.5 412.1 C 924.3 397.9 909.1 389.1 892.6 389.1 L 365.2 389.1 C 331.2 389.1 300.8 371.5 283.8 342.1 C 266.8 312.7 266.8 277.5 283.8 248.1 L 300.9 218.5 C 309.1 204.3 309.1 186.7 300.9 172.5 C 292.7 158.3 277.5 149.5 261 149.5 L 108.8 149.5 L 135.3 195.5 Z" style="fill: rgb(255, 255, 255);"/>
  <path class="st1" d="M 81.6 102.3 L 259.5 102.3 C 293.5 102.3 323.9 119.9 340.9 149.3 C 357.9 178.7 357.9 213.9 340.9 243.3 L 323.8 272.9 C 315.6 287.1 315.6 304.7 323.8 318.9 C 332 333.1 347.2 341.9 363.7 341.9 L 891.1 341.9 C 925.1 341.9 955.5 359.5 972.5 388.9 C 987.5 414.9 989.3 445.3 977.8 472.3 L 950.3 520 L 1004.3 520 L 1012.4 506 C 1066.3 412.6 998.9 295.9 891.1 295.9 L 606.3 295.9 L 445.6 295.9 L 363.7 295.9 L 380.8 266.3 C 434.7 173 367.3 56.3 259.5 56.3 L 258.2 56.3 L 227.7 86.8 L 197.2 56.3 L 55 56.3 L 81.6 102.3 Z" style="fill: rgb(255, 255, 255);"/>
  <polygon class="st1" points="205.7 47.7 227.6 25.7 249.6 47.7 272.8 47.7 227.6 2.5 182.5 47.7" style="fill: rgb(255, 255, 255);"/>
  <path class="st1" d="M 70.2 149.5 L 0 123.9 L 40.7 98.3 L 50.7 115.6 L 259.5 115.6 C 288.7 115.6 314.8 130.7 329.4 156 C 344 181.3 344 211.4 329.4 236.7 L 312.3 266.3 C 301.7 284.7 301.7 307.3 312.3 325.6 C 322.9 344 342.5 355.3 363.7 355.3 L 891.1 355.3 C 920.3 355.3 946.4 370.4 961 395.7 C 975.6 421 975.6 451.1 961 476.4 L 935.8 520 L 912.1 520 L 944 464.8 C 954.6 446.4 954.6 423.8 944 405.4 C 933.4 387 913.8 375.7 892.6 375.7 L 525.9 375.7 L 365.2 375.7 C 336 375.7 309.9 360.6 295.3 335.3 C 280.7 310 280.7 279.9 295.3 254.6 L 312.4 225 C 323 206.6 323 184 312.4 165.7 C 301.8 147.3 282.2 136 261 136 L 62.7 136 L 70.2 149.5 Z" style="fill: rgb(255, 255, 255);"/>
  <path class="st1" d="M 1276 90 L 1104 90 L 1104 430 L 1255.5 430 C 1374.1 430 1429.3 363.8 1429.3 259.5 C 1429.3 173.8 1389.3 90 1276 90 Z M 1249.8 342.9 L 1208.8 342.9 L 1208.8 177.1 L 1242.1 177.1 C 1317.8 177.1 1324.5 236.6 1324.5 258.1 C 1324.6 290 1315 342.9 1249.8 342.9 Z M 1720.3 272.4 C 1755.1 259.5 1771.3 222.4 1771.3 187.2 C 1771.3 122.9 1719.9 90 1660.3 90 L 1460.7 90 L 1460.7 430 L 1565.5 430 L 1565.5 311.4 L 1621.2 311.4 C 1662.6 311.4 1665.5 345.2 1668.4 377.6 C 1669.8 395.2 1671.7 412.8 1677 430 L 1781.8 430 C 1772.3 414.3 1771.8 373.8 1770.4 357.1 C 1766.5 314.8 1748.9 283.3 1720.3 272.4 Z M 1620.3 238.6 L 1565.5 238.6 L 1565.5 171 L 1614.6 171 C 1654.6 171 1666.5 183.4 1666.5 204.8 C 1666.5 235.2 1639.8 238.6 1620.3 238.6 Z M 1922.7 90 L 1797.4 430 L 1902.7 430 L 1917.9 381.4 L 2026 381.4 L 2040.3 430 L 2148.9 430 L 2025.1 90 L 1922.7 90 Z M 1940.8 308.6 L 1973.7 203.8 L 1974.6 203.8 L 2005.1 308.6 L 1940.8 308.6 Z M 2328.4 315.7 L 2374.6 315.7 C 2369.4 340.9 2344.6 353.3 2320.3 353.3 C 2256.5 353.3 2243.6 297.6 2243.6 265.7 C 2243.6 242.4 2241.2 166.6 2313.1 166.6 C 2337.9 166.6 2358.8 184.2 2362.6 209 L 2463.1 209 C 2447.9 129 2393.1 81.8 2306.4 81.8 C 2229.7 81.8 2138.8 133.7 2138.8 263.3 C 2138.8 360 2200.7 438.1 2301.2 438.1 C 2338.3 438.1 2374.5 425.2 2397.9 395.2 L 2401.2 430 L 2467.4 430 L 2467.4 242.9 L 2328.3 242.9 L 2328.3 315.7 Z M 2668 81.9 C 2564.7 81.9 2495.6 156.2 2495.6 260 C 2495.6 363.8 2564.7 438.1 2668 438.1 C 2771.4 438.1 2840.4 363.8 2840.4 260 C 2840.4 156.2 2771.3 81.9 2668 81.9 Z M 2668 353.4 C 2641.3 353.4 2600.4 335.8 2600.4 260.1 C 2600.4 184.4 2641.4 166.8 2668 166.8 C 2694.7 166.8 2735.6 184.4 2735.6 260.1 C 2735.6 335.8 2694.7 353.4 2668 353.4 Z M 3078.5 90 L 3078.5 271.9 L 3077.5 271.9 L 2978.5 90 L 2871.3 90 L 2871.3 430 L 2970.4 430 L 2970.4 244.3 L 2971.4 244.3 L 3075.6 430 L 3177.5 430 L 3177.5 90 L 3078.5 90 Z" style="fill: rgb(255, 255, 255);"/>
  <path class="st1" d="M 3276.6 209 C 3277.1 169.9 3292.8 141.4 3318 122.3 C 3343.2 103.7 3377.5 94.7 3414.7 94.7 C 3510.9 94.7 3542.8 151.8 3542.8 179.9 C 3542.8 249.4 3499 249.4 3499 250.9 L 3499 251.9 C 3499 255.7 3553.3 255.7 3553.3 329.5 C 3553.3 370 3522.8 433.8 3414.2 433.8 C 3265.1 433.8 3264.7 329 3267 304.3 L 3357.5 304.3 C 3357 321.9 3361.3 335.3 3370.4 343.8 C 3379.4 354.8 3393.3 358.6 3409.9 358.6 C 3437 358.6 3454.2 348.6 3454.2 321.5 C 3454.2 292.4 3431.8 287.2 3409.9 287.2 C 3396.1 287.2 3389.4 288.6 3382.3 289.6 L 3382.3 224.8 C 3389.4 225.3 3397.1 226.7 3409.9 226.7 C 3429.9 226.7 3455.1 222.4 3455.1 196.7 C 3455.1 175.7 3431.3 167.7 3411.8 167.7 C 3386.1 167.7 3365.1 181.5 3366.1 209.1 L 3276.6 209.1 Z" style="fill: rgb(255, 255, 255);"/>
</svg>
